icons/svg/subway/subway_yokohama.svg

<?xml version="1.0" encoding="UTF-8" standalone="no"?>
<svg
   xmlns:dc="http://purl.org/dc/elements/1.1/"
   xmlns:cc="http://creativecommons.org/ns#"
   xmlns:rdf="http://www.w3.org/1999/02/22-rdf-syntax-ns#"
   xmlns:svg="http://www.w3.org/2000/svg"
   xmlns="http://www.w3.org/2000/svg"
   xmlns:sodipodi="http://sodipodi.sourceforge.net/DTD/sodipodi-0.dtd"
   xmlns:inkscape="http://www.inkscape.org/namespaces/inkscape"
   width="16"
   height="16"
   id="svg2"
   version="1.1"
   inkscape:version="0.91 r13725"
   sodipodi:docname="subway_yokohama.svg">
  <defs
     id="defs13">
    <linearGradient
       gradientTransform="matrix(0.08596979,0,0,0.08596979,0.67480439,1.9432845)"
       x1="87.101639"
       y1="121.69753"
       x2="87.260849"
       y2="1.2385538"
       id="l1"
       gradientUnits="userSpaceOnUse">
      <stop
         style="stop-color:#e92203;stop-opacity:1"
         offset="0"
         id="stop5" />
      <stop
         style="stop-color:#ff0000;stop-opacity:0.64628822"
         offset="1"
         id="stop7" />
    </linearGradient>
    <linearGradient
       gradientTransform="matrix(0.08400469,0,0,0.08400469,0.8422306,2.0814238)"
       x1="87.101639"
       y1="121.69753"
       x2="87.260849"
       y2="1.2385538"
       id="l1-2"
       gradientUnits="userSpaceOnUse">
      <stop
         style="stop-color:#e92203;stop-opacity:1"
         offset="0"
         id="stop5-8" />
      <stop
         style="stop-color:#ff0000;stop-opacity:0.64628822"
         offset="1"
         id="stop7-4" />
    </linearGradient>
    <clipPath
       style="clip-rule:evenodd"
       id="clip">
      <path
         inkscape:connector-curvature="0"
         d="m 0,62 142,0 0,1 a 19,17 0 0 1 19,17 l 0,144 -36,0 0,-144 A 45,43 0 0 0 80,37 l 0,26 a 19,17 0 0 1 19,17 l 0,144 -37,0 0,-144 A 45,43 0 0 0 17,37 l 0,26 a 19,17 0 0 1 19,17 l 0,144 -36,0"
         id="path9" />
    </clipPath>
    <clipPath
       style="clip-rule:evenodd"
       id="clip-3">
      <path
         inkscape:connector-curvature="0"
         d="m 0,62 142,0 0,1 c 10.49341,0 19,7.611159 19,17 l 0,144 -36,0 0,-144 C 125,56.251756 104.85281,37 80,37 l 0,26 c 10.49341,0 19,7.611159 19,17 l 0,144 -37,0 0,-144 C 62,56.251756 41.852814,37 17,37 l -19.4659076,6.047445 c 10.4934102,0 39.5295186,70.389145 39.4392026,79.777555 L 36,224 0,224"
         id="path9-6"
         sodipodi:nodetypes="cccsccsccsccsccscc" />
    </clipPath>
    <clipPath
       clipPathUnits="userSpaceOnUse"
       id="clipPath4241">
      <path
         style="color:#000000;font-style:normal;font-variant:normal;font-weight:normal;font-stretch:normal;font-size:medium;line-height:normal;font-family:sans-serif;text-indent:0;text-align:start;text-decoration:none;text-decoration-line:none;text-decoration-style:solid;text-decoration-color:#000000;letter-spacing:normal;word-spacing:normal;text-transform:none;direction:ltr;block-progression:tb;writing-mode:lr-tb;baseline-shift:baseline;text-anchor:start;white-space:normal;clip-rule:nonzero;display:inline;overflow:visible;visibility:visible;opacity:1;isolation:auto;mix-blend-mode:normal;color-interpolation:sRGB;color-interpolation-filters:linearRGB;solid-color:#000000;solid-opacity:1;fill:#f78f1e;fill-opacity:1;fill-rule:nonzero;stroke:none;stroke-width:1.1890316;stroke-linecap:butt;stroke-linejoin:miter;stroke-miterlimit:4;stroke-dasharray:none;stroke-dashoffset:0;stroke-opacity:1;color-rendering:auto;image-rendering:auto;shape-rendering:auto;text-rendering:auto;enable-background:accumulate"
         d="m 14.951172,5.6171875 0,1.1894531 1.189724,4.0473644 c 0.22222,0.755979 1.557608,-1.2390936 2.119845,-0.687028 l -1.216421,3.99855 5.104118,-1.349121 -2.897294,-5.4803727 C 18.582537,6.0713293 20.39326,2.308458 19.17089,3.0516451 Z"
         id="path4243"
         inkscape:connector-curvature="0"
         sodipodi:nodetypes="ccssccssc" />
    </clipPath>
    <clipPath
       style="clip-rule:evenodd"
       id="clip-5">
      <path
         inkscape:connector-curvature="0"
         d="m 0,62 142,0 0,1 a 19,17 0 0 1 19,17 l 0,144 -36,0 0,-144 A 45,43 0 0 0 80,37 l 0,26 a 19,17 0 0 1 19,17 l 0,144 -37,0 0,-144 A 45,43 0 0 0 17,37 l 0,26 a 19,17 0 0 1 19,17 l 0,144 -36,0"
         id="path9-62" />
    </clipPath>
  </defs>
  <sodipodi:namedview
     pagecolor="#ffffff"
     bordercolor="#666666"
     borderopacity="1"
     objecttolerance="10"
     gridtolerance="10"
     guidetolerance="10"
     inkscape:pageopacity="0"
     inkscape:pageshadow="2"
     inkscape:window-width="1920"
     inkscape:window-height="1006"
     id="namedview11"
     showgrid="true"
     inkscape:zoom="45.21461"
     inkscape:cx="6.4462833"
     inkscape:cy="8.3517086"
     inkscape:window-x="1920"
     inkscape:window-y="0"
     inkscape:window-maximized="1"
     inkscape:current-layer="svg2"
     showguides="false"
     inkscape:snap-global="false">
    <sodipodi:guide
       position="0,0"
       orientation="0,580"
       id="guide2989" />
    <sodipodi:guide
       position="580,0"
       orientation="-580,0"
       id="guide2991" />
    <sodipodi:guide
       position="580,580"
       orientation="0,-580"
       id="guide2993" />
    <sodipodi:guide
       position="0,580"
       orientation="580,0"
       id="guide2995" />
    <sodipodi:guide
       position="0,0"
       orientation="0,580"
       id="guide2997" />
    <sodipodi:guide
       position="580,0"
       orientation="-580,0"
       id="guide2999" />
    <sodipodi:guide
       position="580,580"
       orientation="0,-580"
       id="guide3001" />
    <sodipodi:guide
       position="0,580"
       orientation="580,0"
       id="guide3003" />
    <inkscape:grid
       type="xygrid"
       id="grid3013"
       empspacing="5"
       visible="true"
       enabled="true"
       snapvisiblegridlinesonly="true" />
  </sodipodi:namedview>
  <metadata
     id="metadata2975">image/svg+xmlen<rdf:RDF>
  <cc:Work
     rdf:about="">
    <dc:format>image/svg+xml</dc:format>
    <dc:type
       rdf:resource="http://purl.org/dc/dcmitype/StillImage" />
    <dc:title />
  </cc:Work>
</rdf:RDF>
</metadata>
  <circle
     style="color:#000000;clip-rule:nonzero;display:inline;overflow:visible;visibility:visible;opacity:1;isolation:auto;mix-blend-mode:normal;color-interpolation:sRGB;color-interpolation-filters:linearRGB;solid-color:#000000;solid-opacity:1;fill:#fefefe;fill-opacity:1;fill-rule:nonzero;stroke:none;stroke-width:1;stroke-linecap:butt;stroke-linejoin:miter;stroke-miterlimit:4;stroke-dasharray:none;stroke-dashoffset:0;stroke-opacity:1;marker:none;color-rendering:auto;image-rendering:auto;shape-rendering:auto;text-rendering:auto;enable-background:accumulate"
     id="path4182"
     cx="8"
     cy="8"
     r="5.0979099" />
  <g
     transform="matrix(0.07257625,0,0,0.07257625,3.6454246,3.6454248)"
     id="#ffffffff" />
  <path
     style="opacity:1;fill:#0d6bad"
     id="path6"
     d="M 5.4301475,4.4957842 C 6.8901241,3.3583606 9.1002707,3.3691932 10.570092,4.4849516 9.5048899,4.704558 8.632645,5.4303426 7.9760001,6.2674075 7.3360913,5.4362513 6.4727066,4.7291776 5.4301475,4.4957842 Z"
     inkscape:connector-curvature="0" />
  <path
     style="opacity:1;fill:#0d6bad"
     id="path8"
     d="M 4.8975465,4.9300732 C 6.0483979,5.0699122 6.9846337,5.9020533 7.623558,6.8198704 7.4985297,7.0591725 7.3882685,7.3053681 7.2927744,7.5584571 6.7690336,6.4249727 5.6034151,5.672599 4.3698678,5.5790447 4.5362441,5.3554991 4.7124651,5.138847 4.8975465,4.9300732 Z"
     inkscape:connector-curvature="0" />
  <path
     style="opacity:1;fill:#0d6bad"
     id="path10"
     d="M 8.3245043,6.8060834 C 8.9969008,5.8961446 9.9262453,5.0344601 11.104662,4.9281036 11.28679,5.1368774 11.462026,5.3525448 11.629387,5.5741208 10.401747,5.6627512 9.1681994,6.3865662 8.692698,7.5564876 8.5588094,7.3122615 8.4406723,7.0591725 8.3245043,6.8060834 Z"
     inkscape:connector-curvature="0" />
  <path
     style="opacity:1;fill:#0d6bad"
     id="path12"
     d="m 4.067634,6.106888 c 1.5407035,0 3.0085559,1.3767257 2.921922,2.9484382 -0.00689,1.0645498 0.00295,2.1281148 -0.00591,3.1926638 C 5.9597951,11.977175 5.0137145,11.36661 4.4210605,10.478337 3.5232192,9.223724 3.4040977,7.4924767 4.067634,6.106888 Z"
     inkscape:connector-curvature="0" />
  <path
     style="opacity:1;fill:#0d6bad"
     id="path14"
     d="M 8.9555528,9.0533566 C 8.8797482,7.4649028 10.373197,6.0812837 11.931621,6.1059032 c 0.572965,1.2152214 0.572965,2.6884557 -0.05612,3.8820119 -0.57198,1.1443169 -1.677546,1.9774429 -2.9160153,2.2709079 -0.00591,-1.068489 0.00197,-2.136978 -0.00394,-3.2054664 z"
     inkscape:connector-curvature="0" />
  <path
     style="opacity:1;fill:#0d6bad"
     id="path16"
     d="m 7.9760001,7.4717963 c 0.2047708,0.4667868 0.3731161,0.9660714 0.3701626,1.4811126 -0.00394,1.1334841 -9.844e-4,2.2659841 -0.00197,3.3984841 -0.2480877,0.0059 -0.4961755,0.0039 -0.7442632,-0.0089 0.026581,-1.162044 -0.014767,-2.324087 0.011814,-3.4861298 0.00394,-0.4835281 0.1742521,-0.9463758 0.3642558,-1.3846039 z"
     inkscape:connector-curvature="0" />
</svg>

<svg width="16" height="16" viewBox="0 0 16 16" fill="none" xmlns="http://www.w3.org/2000/svg">
<path d="M8.00001 13.0979C10.8155 13.0979 13.0979 10.8155 13.0979 8.00001C13.0979 5.18451 10.8155 2.9021 8.00001 2.9021C5.18451 2.9021 2.9021 5.18451 2.9021 8.00001C2.9021 10.8155 5.18451 13.0979 8.00001 13.0979Z" fill="#FEFEFE"/>
<path d="M5.43018 4.49578C6.89015 3.35835 9.1003 3.36918 10.5701 4.48494C9.50492 4.70455 8.63267 5.43033 7.97603 6.2674C7.33612 5.43624 6.47273 4.72917 5.43018 4.49578Z" fill="#0D6BAD"/>
<path d="M4.89755 4.93008C6.0484 5.06992 6.98464 5.90206 7.62356 6.81988C7.49853 7.05918 7.38827 7.30538 7.29278 7.55847C6.76904 6.42498 5.60342 5.67261 4.36987 5.57906C4.53625 5.35551 4.71247 5.13886 4.89755 4.93008Z" fill="#0D6BAD"/>
<path d="M8.32452 6.80608C8.99692 5.89614 9.92627 5.03446 11.1047 4.9281C11.2868 5.13687 11.462 5.35254 11.6294 5.57412C10.4018 5.66275 9.16822 6.38656 8.69272 7.55648C8.55883 7.31226 8.44069 7.05917 8.32452 6.80608Z" fill="#0D6BAD"/>
<path d="M4.06766 6.10687C5.60836 6.10687 7.07621 7.4836 6.98958 9.05531C6.98269 10.1199 6.99253 11.1834 6.98367 12.248C5.95982 11.9772 5.01374 11.3666 4.42108 10.4783C3.52324 9.22371 3.40412 7.49246 4.06766 6.10687Z" fill="#0D6BAD"/>
<path d="M8.95553 9.05337C8.87972 7.46491 10.3732 6.08129 11.9316 6.10591C12.5046 7.32114 12.5046 8.79437 11.8755 9.98793C11.3035 11.1322 10.1979 11.9654 8.95946 12.2588C8.95355 11.1903 8.96143 10.1219 8.95552 9.05337H8.95553Z" fill="#0D6BAD"/>
<path d="M7.97599 7.47181C8.18076 7.9386 8.3491 8.43788 8.34615 8.95292C8.34221 10.0864 8.34516 11.2189 8.34418 12.3514C8.09609 12.3573 7.848 12.3553 7.59991 12.3425C7.6265 11.1805 7.58515 10.0184 7.61173 8.85638C7.61567 8.37285 7.78598 7.91 7.97598 7.47177L7.97599 7.47181Z" fill="#0D6BAD"/>
</svg>
